!!!COM: Schiørring, Niels
!!!CDT: 1743-1798
!!!OPR@@DA: Choral-Bog
!!!ONM: 48
!!!OTL@@DA: Jeſu Chriſt! dig takke vi
**kern	**fb	**kern	**kern	**kern	**kern	**kern	**kern	**kern
*part6	*part6	*part6	*part5	*part5	*part4	*part3	*part2	*part1
*staff8	*	*staff7	*staff6	*staff5	*staff4	*staff3	*staff2	*staff1
*clefF4	*	*clefC1	*clefF4	*clefC1	*clefF4	*clefC4	*clefC3	*clefC1
*mclefF4	*	*mclefG2	*mclefF4	*mclefG2	*mclefF4	*mclefGv2	*mclefG2	*mclefG2
*k[f#c#]	*	*k[f#c#]	*k[f#c#]	*k[f#c#]	*k[f#c#]	*k[f#c#]	*k[f#c#]	*k[f#c#]
*D:	*	*D:	*D:	*D:	*D:	*D:	*D:	*D:
*M4/4	*	*M4/4	*M4/4	*M4/4	*M4/4	*M4/4	*M4/4	*M4/4
*met(c)	*	*met(c)	*met(c)	*met(c)	*met(c)	*met(c)	*met(c)	*met(c)
*MM180	*	*MM180	*MM180	*MM180	*MM180	*MM180	*MM180	*MM180
=1	=1	=1	=1	=1	=1	=1	=1	=1
*	*	*	*^	*^	*	*	*	*
2D	.	2a	1ryy	2D	2d	2f#	2D	2d	2f#	2a
2D	.	2a	.	2D	2d	2f#	2D	2d	2f#	2a
=2	=2	=2	=2	=2	=2	=2	=2	=2	=2	=2
2G	.	2b	1ryy	2G	2d	2g	2G	2d	2g	2b
2E	6	2cc#	.	2E	2g	2g	2E	2g	2g	2cc#
=3	=3	=3	=3	=3	=3	=3	=3	=3	=3	=3
2F#	6	2dd	2ryy	2F#	2f#	2a	2F#	2f#	2a	2dd
2G#X	5	2dd	2e	2G#X	2dd	2b	2G#X	2e	2b	2dd
=4	=4	=4	=4	=4	=4	=4	=4	=4	=4	=4
2A	.	2cc#	2e	2A	2cc#	2a	2A	2e	2a	2cc#
2B	.	2b	2d	2B	2b	2f#	2B	2d	2f#	2b
=5	=5	=5	=5	=5	=5	=5	=5	=5	=5	=5
2F#	6	2dd	2A	2F#	2dd	2d	2F#	2A	2f#	2dd
2C#	6	2a	2A	2C#	2a	2e	2C#	2A	2e	2a
=6	=6	=6	=6	=6	=6	=6	=6	=6	=6	=6
2D	.	2f#	2A	2D	2f#	2d	2D	2A	2d	2f#
2BB	6	2g	2G	2BB	2g	[2d	2BB	2G	[2d	2g
=7	=7	=7	=7	=7	=7	=7	=7	=7	=7	=7
1AA	6 4	(2f#	2A	1AA	2f#	2d]	1AA	(2A	(2d]	(2f#
.	5 3	2e)	2G	.	2e	2c#	.	2G)	2c#)	2e)
=8	=8	=8	=8	=8	=8	=8	=8	=8	=8	=8
1D	.	1d	1F#	1D	1d	1A	1D	1F#	1d	1d
=9:|!	=9:|!	=9:|!	=9:|!	=9:|!	=9:|!	=9:|!	=9:|!	=9:|!	=9:|!	=9:|!
2BB	.	2d	2F#	2BB	2d	2B	2BB	2F#	2d	2d
2AA	.	2e	2A	2AA	2e	2c#	2AA	2A	2c#	2e
=10	=10	=10	=10	=10	=10	=10	=10	=10	=10	=10
2D	.	2.f#	2A	2D	2.f#	2d	2D	2A	2d	2.f#
2AA#X	6	.	2F#	2AA#X	.	2c#	2AA#X	2F#	2c#	.
.	5	4e	.	.	4e	.	.	.	.	4e
=11	=11	=11	=11	=11	=11	=11	=11	=11	=11	=11
2BB	.	2d	2F#	2BB	2d	2.B	2BB	2F#	[2B	2d
2C#	7	2e	2E	2C#	2e	.	2C#	(4E	(4B]	2e
.	6	.	.	.	.	4Ani	.	4A)	4A)	.
=12	=12	=12	=12	=12	=12	=12	=12	=12	=12	=12
2D	.	2f#	2D	2D	2f#	2A	2D	2A	2A	2f#
2D	.	2dd	2A	2D	2dd	2f#	2D	2A	2f#	2dd
=13	=13	=13	=13	=13	=13	=13	=13	=13	=13	=13
2A	.	2cc#	2A	2A	2cc#	2e	2A	2A	2e	2cc#
2F#	6	2dd	2A	2F#	2dd	2f#	2F#	2A	2a	2dd
=14	=14	=14	=14	=14	=14	=14	=14	=14	=14	=14
2C#	6	2.ee	[1A	2C#	2.ee	2e	2C#	2A	2a	2.ee
2D	9	.	.	2D	.	2f#	2D	2f#	[2a	.
.	8	4dd	.	.	4dd	.	.	.	.	4dd
=15	=15	=15	=15	=15	=15	=15	=15	=15	=15	=15
1E	6 4	(2cc#	2A]	1E	2cc#	1e	1E	(2e	(2a]	(2cc#
.	5 #	2b)	2G#X	.	2b	.	.	2d)	2g#X)	2b)
=16	=16	=16	=16	=16	=16	=16	=16	=16	=16	=16
*	*	*	*	*	*	*^	*	*	*	*
2AA	.	2a	2A	2AA	2a	2e	2c#\	2AA	2c#	2a	2a
*	*	*	*	*	*	*v	*v	*	*	*	*
2G	2	2a	2ryy	2Gni	2c#	2e	2G	2c#	2e	2a
=17	=17	=17	=17	=17	=17	=17	=17	=17	=17	=17
2F#	6	2a	1ryy	2F#	1d	2.f#	2F#	2d	2f#	2a
2BB	5	2dd	.	2BB	.	.	2BB	2d	(4f#	2dd
.	#6\	.	.	.	.	4g#X	.	.	4g#X)	.
=18	=18	=18	=18	=18	=18	=18	=18	=18	=18	=18
2AA	.	2cc#	2ryy	2AA	2e	2a	2AA	2e	2a	2cc#
2C#	6	2a	2c#	2C#	2a	2e	2C#	2c#	2e	2a
=19	=19	=19	=19	=19	=19	=19	=19	=19	=19	=19
2D#X	6	2b	1B	2D#X	2b	2f#	2D#X	2B	2f#	2b
2E	.	4a	.	2E	4a	2e	2E	2B	2e	(4a
.	.	4g	.	.	4g	.	.	.	.	4g)
=20	=20	=20	=20	=20	=20	=20	=20	=20	=20	=20
2BB	#	2f#	2B	2BB	2f#	2d#X	2BB	2B	2d#X	2f#
2E	5	2e	2G	2E	2e	4B	2E	2G	(4B	2e
.	6	.	.	.	.	4c#	.	.	4c#)	.
=21	=21	=21	=21	=21	=21	=21	=21	=21	=21	=21
2D	.	2f#	2A	2Dni	2f#	1dni	2D	2A	2dni	2f#
*	*	*	*	*	*	*	*^	*	*	*
2BB	6	2g	2B	2BB	2g	.	2B	2BB	2B	2d	2g
=22	=22	=22	=22	=22	=22	=22	=22	=22	=22	=22	=22
2FF#	6	2.a	1ryy	2FF#	2A	[1d	2F#	2FF#	2A	2d	2.a
2GG	9	.	.	2GG	2B	.	2G	2GG	2B	[2d	.
.	8	4g	.	.	.	.	.	.	.	.	4g
=23	=23	=23	=23	=23	=23	=23	=23	=23	=23	=23	=23
1AA	6 4	2f#	2A	1AA	2f#	2d]	1A	1AA	(2A	(2d]	(2f#
.	5 3	2e	2G	.	2e	2c#	.	.	2G)	2c#)	2e)
*	*	*	*	*	*	*	*v	*v	*	*	*
=24	=24	=24	=24	=24	=24	=24	=24	=24	=24	=24
1D	.	1d	1F#	1D	1d	1A	1D	1F#	1d	1d
=25	=25	=25	=25	=25	=25	=25	=25	=25	=25	=25
4G	.	2d	4G	4G	2d	4B	(4G	(4G	(4B	2d
4F#	6	.	4A	4F#	.	4A	4F#)	4A)	4A)	.
2E	6	2e	2G	2E	2e	2c#	2E	2G	2c#	2e
=26	=26	=26	=26	=26	=26	=26	=26	=26	=26	=26
2D	.	2.f#	2A	2D	2.f#	2d	2D	2A	2d	2.f#
2AA#X	6	.	2F#	2AA#X	.	2c#	2AA#X	2F#	2c#	.
.	5	4e	.	.	4e	.	.	.	.	4e
=27	=27	=27	=27	=27	=27	=27	=27	=27	=27	=27
4BB	5_ 3_	2d	2F#	4BB	2d	4B	(4BB	2F#	(4B	2d
4AAni	.	.	.	4AAni	.	2d	4AAni)	.	2d)	.
4GG	6 5	2e	4ryy	4GG	4B	.	(4GG	(4B	.	2e
4AA	3	.	4ryy	4AA	4A	4c#	4AA)	4A)	4c#	.
=28	=28	=28	=28	=28	=28	=28	=28	=28	=28	=28
2D	.	2f#	1ryy	2D	2A	2d	2D	2A	2d	2f#
2GG#X	5	2dd	.	2GG#X	2e	2b	2GG#X	2B	2e	2dd
=29	=29	=29	=29	=29	=29	=29	=29	=29	=29	=29
2AA	.	2cc#	1ryy	2AA	2e	2a	2AA	2A	2e	2cc#
2F#	6	2dd	.	2F#	2f#	2a	2F#	2A	2f#	2dd
=30	=30	=30	=30	=30	=30	=30	=30	=30	=30	=30
2C#	6	2.ee	1ryy	2C#	2e	1a	2C#	2A	2a	2.ee
2D	9	.	.	2D	2f#	.	2D	2f#	[2a	.
.	8	4dd	.	.	.	.	.	.	.	4dd
=31	=31	=31	=31	=31	=31	=31	=31	=31	=31	=31
2E	6 4	(2cc#	4ryy	2E	4e	2a	(2E	(4e	(2a]	(2cc#
.	.	.	2c#	.	4ryy	.	.	2c#	.	.
2E#X	5	2b)	.	2E#X	2b	2g#X	2E#X)	.	2g#X)	2b)
.	.	.	4c#	.	.	.	.	4c#)	.	.
=32	=32	=32	=32	=32	=32	=32	=32	=32	=32	=32
2F#	.	2a	2c#	2F#	2a	2f#	2F#	2c#	2f#	2a
2Eni	6 4 3	2a	2c#	2Eni	2a	2gni	2Eni	2c#	2gni	2a
=33	=33	=33	=33	=33	=33	=33	=33	=33	=33	=33
*	*	*	*	*	*	*^	*	*	*	*
2D	.	2a	2A	2D	2a	2.f#	2d\	2D	2d	2f#	2a
*	*	*	*	*	*	*v	*v	*^	*	*	*
2BB	5	2dd	2B	2BB	2dd	.	2B	2BB	2d	(4f#	2dd
.	#6\	.	.	.	.	4g#X	.	.	.	4g#X)	.
=34	=34	=34	=34	=34	=34	=34	=34	=34	=34	=34	=34
2EE#X	6	2cc#	1ryy	2EE#X	2c#	2g#X	2E#X	2EE#X	2G#X	2g#X	2cc#
2FF#	.	2a	.	2FF#	2c#	2f#	2F#	2FF#	2c#	2f#	2a
=35	=35	=35	=35	=35	=35	=35	=35	=35	=35	=35	=35
2DD#X	6	2b	1ryy	2DD#X	1B	2f#	2D#X	2DD#X	2B	2f#	2b
2EEni	.	(4a	.	2EEni	.	2eni	2Eni	2EEni	2B	2e	(4a
.	.	4g)	.	.	.	.	.	.	.	.	4g)
*	*	*	*	*	*	*	*v	*v	*	*	*
=36	=36	=36	=36	=36	=36	=36	=36	=36	=36	=36
2BB	#	2f#	2ryy	2BB	2B	2d#X	2BB	2B	2d#X	2f#
2G	6	2e	4B	2G	2e	4B	2G	(4B	(4B	2e
.	4 2	.	4A	.	.	4c#	.	4A)	4c#)	.
=37	=37	=37	=37	=37	=37	=37	=37	=37	=37	=37
2F#	6	2f#	2A	2F#	2f#	2dni	2F#	2A	2dni	2f#
4E	.	2g	2B	4E	2g	2e	(4E	2B	2e	2g
4D	.	.	.	4D	.	.	4D)	.	.	.
=38	=38	=38	=38	=38	=38	=38	=38	=38	=38	=38
2C#	6	2.a	2A	2C#	2.a	2e	2C#	2A	2e	2.a
2AA	8	.	2E	2AA	.	2c#	2AA	2c#	2e	.
.	7	4g	.	.	4g	.	.	.	.	4g
=39	=39	=39	=39	=39	=39	=39	=39	=39	=39	=39
4BB	5_ 3_	2f#	2.D	4BB	2f#	2d	(4BB	(2d	(2.d	(2f#
4AA	.	.	.	4AA	.	.	4AA	.	.	.
4GG	6 5	2e	.	4GG	2e	4B	4GG	4B	.	2e)
4AA	3	.	4C#	4AA	.	4A	4AA)	4A)	4c#)	.
=40	=40	=40	=40	=40	=40	=40	=40	=40	=40	=40
1D	.	1d	1F#	1D	1d	1A	1D	1F#	1d	1d
=41	=41	=41	=41	=41	=41	=41	=41	=41	=41	=41
2G	.	2d	2G	2G	2d	2B	2G	2G	2B	2d
2E	6	2e	2G	2E	2e	[2c#	2E	2G	[2c#	2e
=42	=42	=42	=42	=42	=42	=42	=42	=42	=42	=42
2D	7	2.f#	1F#	2D	2.f#	4c#]	2D	2F#	(4c#]	2.f#
.	6	.	.	.	.	4B	.	.	4B)	.
2AA#X	6	.	.	2AA#X	.	[2c#	2AA#X	2F#	[2c#	.
.	5	4e	.	.	4e	.	.	.	.	4e
=43	=43	=43	=43	=43	=43	=43	=43	=43	=43	=43
2BB	9	2d	2F#	2BB	2d	4c#]	2BB	2F#	(4c#]	2d
.	8	.	.	.	.	2B	.	.	2B)	.
2C#	7	2e	2E	2C#	2e	.	2C#	2E	.	2e
.	6	.	.	.	.	4Ani	.	.	4A	.
=44	=44	=44	=44	=44	=44	=44	=44	=44	=44	=44
2D	.	2f#	2D	2D	2f#	2A	2D	2D	2A	2f#
2D	.	2f#	2A	2D	2f#	2d	2D	2A	2d	2f#
=45	=45	=45	=45	=45	=45	=45	=45	=45	=45	=45
2C#	6	2.a	1A	2C#	2.a	2e	2C#	2A	2e	2.a
2AA	8	.	.	2AA	.	2c#	2AA	2A	2c#	.
.	7	4g	.	.	4g	.	.	.	.	4g
=46	=46	=46	=46	=46	=46	=46	=46	=46	=46	=46
2D	.	2f#	2A	2D	2f#	2d	2D	2A	2d	2f#
2GG	.	2g	2ryy	2GG	2B	[2d	2GG	2B	[2d	2g
=47	=47	=47	=47	=47	=47	=47	=47	=47	=47	=47
1AA	6 4	2f#	2A	1AA	2f#	2d]	2AA	2A	2d]	2f#
.	5 3	2e	2G	.	2e	2c#	2AA	2G	2c#	2e
=48	=48	=48	=48	=48	=48	=48	=48	=48	=48	=48
1D	.	1d	1F#	1D	1d	1A	1D	1F#	1d	1d
*	*	*	*v	*v	*	*	*	*	*	*
*	*	*	*	*v	*v	*	*	*	*
==	==	==	==	==	==	==	==	==
*-	*-	*-	*-	*-	*-	*-	*-	*-
!!!system-decoration: {(s1,s2,s3,s4)}{(s5,s6)}{(s7,s8)}
!!!RDF**kern: i = editorial accidental
!!!RDF**kern: > = above
!!!RDF**kern: < = below
!!!AGN: chorale
!!!EED: Derek Remeš
!!!EED2: Victor Phan
!!!END: 2023/11/28
!!!ENC: Wolfgang Drescher
!!!EEV: 2023/12/08
!!!title: @{ONM}. @{OTL}
!!!verovio: mnumInterval 1